packages/icons/src/components/Icon/assets/small-outline/unpin.svg

<svg width="16" height="16" viewBox="0 0 16 16" fill="none" xmlns="http://www.w3.org/2000/svg">
<path fill-rule="evenodd" clip-rule="evenodd" d="M2.4582 1.22439C2.15902 0.925205 1.67396 0.925205 1.37478 1.22439C1.0756 1.52357 1.0756 2.00863 1.37478 2.30781L5.06643 5.99947L5.06315 6.00006L6.01821 6.95512L6.02035 6.95338L9.41015 10.3432L9.4084 10.3453L10.3635 11.3004L10.3641 11.2971L13.5422 14.4752C13.8414 14.7744 14.3264 14.7744 14.6256 14.4752C14.9248 14.1761 14.9248 13.691 14.6256 13.3918L11.41 10.1762L13.1757 8.4104C13.7696 7.81656 13.7696 6.85376 13.1757 6.25992L10.1036 3.1878C9.50977 2.59397 8.54697 2.59397 7.95313 3.1878L6.18738 4.95356L2.4582 1.22439ZM10.4883 9.25452L7.10901 5.87519L8.87476 4.10944C8.9596 4.0246 9.09714 4.0246 9.18198 4.10944L12.2541 7.18155C12.3389 7.26639 12.3389 7.40393 12.2541 7.48876L10.4883 9.25452Z" fill="black"/>
<path fill-rule="evenodd" clip-rule="evenodd" d="M10.1423 13.246L9.05958 12.1633C9.00096 12.719 8.78763 13.2096 8.4543 13.6672C8.44571 13.679 8.43885 13.6835 8.43371 13.686C8.42737 13.6892 8.41578 13.6932 8.39768 13.6935C8.35896 13.6944 8.3053 13.678 8.26034 13.633L2.73054 8.10318C2.68557 8.05822 2.66916 8.00457 2.66998 7.96584C2.67037 7.94774 2.67434 7.93616 2.67751 7.92982C2.68007 7.92468 2.68449 7.91782 2.69628 7.90923C3.15389 7.57589 3.64448 7.36256 4.20019 7.30395L3.11749 6.22125C2.69106 6.3717 2.29589 6.58836 1.92887 6.85571C1.15781 7.41738 1.24131 8.45722 1.8089 9.02482L3.49857 10.7145L1.8089 12.4041C1.21507 12.998 1.21507 13.9608 1.8089 14.5546C2.40274 15.1485 3.36554 15.1485 3.95938 14.5546L5.64904 12.865L7.33871 14.5546C7.9063 15.1222 8.94615 15.2057 9.50781 14.4347C9.77516 14.0676 9.99183 13.6725 10.1423 13.246ZM2.73054 13.3258L4.4202 11.6361L4.72741 11.9433L3.03775 13.633C2.95291 13.7178 2.81537 13.7178 2.73054 13.633C2.6457 13.5482 2.6457 13.4106 2.73054 13.3258Z" fill="black"/>
</svg>

<svg xmlns="http://www.w3.org/2000/svg" width="16" height="16" fill="none" viewBox="0 0 16 16">
    <path d="M2.458 1.224a.766.766 0 1 0-1.083 1.084l3.691 3.691L5.063 6l.955.955.002-.002 3.39 3.39-.002.002.956.955v-.003l3.178 3.178a.766.766 0 1 0 1.084-1.083l-3.216-3.216 1.766-1.766a1.52 1.52 0 0 0 0-2.15l-3.072-3.072a1.52 1.52 0 0 0-2.15 0L6.186 4.954zm8.03 8.03L7.11 5.876 8.875 4.11a.217.217 0 0 1 .307 0l3.072 3.073a.217.217 0 0 1 0 .307zm-.346 3.992L9.06 12.163c-.059.556-.272 1.047-.606 1.504l-.02.019a.1.1 0 0 1-.036.008.2.2 0 0 1-.138-.061l-5.53-5.53a.2.2 0 0 1-.06-.137q.001-.027.008-.036l.018-.02c.458-.334.948-.547 1.504-.606L3.117 6.221a4.6 4.6 0 0 0-1.188.635c-.771.561-.688 1.601-.12 2.169l1.69 1.69-1.69 1.69a1.52 1.52 0 0 0 2.15 2.15l1.69-1.69 1.69 1.69c.567.567 1.607.65 2.169-.12.267-.367.484-.763.634-1.189m-7.411.08 1.69-1.69.306.307-1.69 1.69a.217.217 0 0 1-.306-.307" clip-rule="evenodd"/>
</svg>
